X: 1
T: Life Ain't So Bad
M: 4/4
L: 1/8
R: reel
K: Amaj
|:aa2e fedf| e=c>cc BAGB| AE E2 ABcA|Bcdc defg|
aa2e fedf| e=c>cc BAGB| AE E2 ABcA| BAGB A(efg):|
|:d3 b c3 A| BE E(cut) AB=c>c| d3 b c3 A| BAGB AB=c>c|
d2 dB c2 cA| BE E(cut) AB=c>c|dcdB c=c>cA| BAGB A2z2:|
|:E3 G BdcB| Acf=f ecBA| E3 G BdcB| Aaec dcBA|
E3 G BdcB| Acf=f ecBA| E3 G BdcB| Acde fefg:|
